Obsidian/actions/24s/kstars_satellites.svg

<svg height="24" viewBox="0 0 24 24" width="24" xmlns="http://www.w3.org/2000/svg"><path d="m11-.13867188v.13867188l-5.2636719 7.1777344a4.5 4.5 0 0 1 .4492188.15625c-.52131-.2111-1.0885469-.3339844-1.6855469-.3339844-1.193 0-2.3366875.4761125-3.1796875 1.3203125a4.5 4.5 0 0 0 -.62695312.7871094l2.09375002 2.0937501-1.3964844 1.904297a3.5 3.5 0 0 0 1.5058594 1.501953l1.9023437-1.394531 2.0957031 2.095703a4.5 4.5 0 0 0 .7851563-.628906c.84419-.843001 1.3191125-1.986688 1.3203125-3.179688.000001-.5812-.1196925-1.132578-.3203125-1.6425781a4.5 4.5 0 0 1 .1445313.4042971l7.1757812-5.4003909zm-8.0859375.22460938-2.828125 2.8300781 3.671875 3.6699219 2.828125-2.828125zm9.3281255 9.328125-2.8281255 2.8300785 3.6718755 3.671875 2.828124-2.830078zm-11.49414112 4.4999995-.74804688 1.09961 1 1 1.0195312-.748047a4.5 4.5 0 0 1 -1.27148432-1.271484z" fill="#bebebe" transform="translate(4 4)"/></svg>

<svg xmlns="http://www.w3.org/2000/svg" width="24" height="24" viewBox="0 0 24 24">
 <defs>
  <style id="current-color-scheme" type="text/css">
   .ColorScheme-Text { color:#bebebe; } .ColorScheme-Highlight { color:#4285f4; }
  </style>
 </defs>
 <path style="fill:currentColor" class="ColorScheme-Text" d="M 11 -0.13867188 L 11 0 L 5.7363281 7.1777344 A 4.5 4.5 0 0 1 6.1855469 7.3339844 C 5.6642369 7.1228844 5.097 7 4.5 7 C 3.307 7 2.1633125 7.4761125 1.3203125 8.3203125 A 4.5 4.5 0 0 0 0.69335938 9.1074219 L 2.7871094 11.201172 L 1.390625 13.105469 A 3.5 3.5 0 0 0 2.8964844 14.607422 L 4.7988281 13.212891 L 6.8945312 15.308594 A 4.5 4.5 0 0 0 7.6796875 14.679688 C 8.5238775 13.836687 8.9988 12.693 9 11.5 C 9.000001 10.9188 8.8803075 10.367422 8.6796875 9.8574219 A 4.5 4.5 0 0 1 8.8242188 10.261719 L 16 4.8613281 L 11 -0.13867188 z M 2.9140625 0.0859375 L 0.0859375 2.9160156 L 3.7578125 6.5859375 L 6.5859375 3.7578125 L 2.9140625 0.0859375 z M 12.242188 9.4140625 L 9.4140625 12.244141 L 13.085938 15.916016 L 15.914062 13.085938 L 12.242188 9.4140625 z M 0.74804688 13.914062 L 0 15.013672 L 1 16.013672 L 2.0195312 15.265625 A 4.5 4.5 0 0 1 0.74804688 13.994141 L 0.74804688 13.914062 z" transform="translate(4 4)"/>
</svg>
